communes/5629.svg

<?xml version="1.0" encoding="UTF-8"?>
<svg version="1.0" viewBox="0 0 603 763" xmlns="http://www.w3.org/2000/svg" xmlns:cc="http://creativecommons.org/ns#" xmlns:dc="http://purl.org/dc/elements/1.1/" xmlns:rdf="http://www.w3.org/1999/02/22-rdf-syntax-ns#" xmlns:xlink="http://www.w3.org/1999/xlink">
<metadata>
<rdf:RDF>
<cc:Work rdf:about="">
<dc:format>image/svg+xml</dc:format>
<dc:type rdf:resource="http://purl.org/dc/dcmitype/StillImage"/>
<dc:date>07-AUG-2006</dc:date>
<dc:creator>
<cc:Agent>
<dc:title>Jérôme BLUM (wagner51)</dc:title>
</cc:Agent>
</dc:creator>
<cc:license rdf:resource="http://creativecommons.org/licenses/GPL/2.0/"/>
<dc:coverage/>
<dc:description>Gabarit pour le Projet:Blasons de WIkipédia</dc:description>
<dc:subject>
<rdf:Bag>
<rdf:li>blason suisse modèle gabarit projet blasons</rdf:li>
</rdf:Bag>
</dc:subject>
<dc:language>fr</dc:language>
<dc:title>Gabrit d'un blason suisse</dc:title>
</cc:Work>
<cc:License rdf:about="http://creativecommons.org/licenses/GPL/2.0/">
<cc:permits rdf:resource="http://web.resource.org/cc/Reproduction"/>
<cc:permits rdf:resource="http://web.resource.org/cc/Distribution"/>
<cc:requires rdf:resource="http://web.resource.org/cc/Notice"/>
<cc:permits rdf:resource="http://web.resource.org/cc/DerivativeWorks"/>
<cc:requires rdf:resource="http://web.resource.org/cc/ShareAlike"/>
<cc:requires rdf:resource="http://web.resource.org/cc/SourceCode"/>
</cc:License>
</rdf:RDF>
</metadata>
<defs>
<radialGradient id="a" cx="858.04" cy="579.93" r="300" gradientTransform="matrix(1.215 1.5316e-24 1.4647e-23 1.2667 -839.19 -490.49)" gradientUnits="userSpaceOnUse">
<stop stop-color="#fff" stop-opacity=".31373" offset="0"/>
<stop stop-color="#fff" stop-opacity=".25098" offset=".19"/>
<stop stop-color="#6b6b6b" stop-opacity=".12549" offset=".6"/>
<stop stop-opacity=".12549" offset="1"/>
</radialGradient>
</defs>
<desc>Coat of Arms of Canton of Freiburg (Fribourg)</desc>
<g>
<path d="m1.5 1.5v458.87c0 166.31 134.31 301.13 300 301.13s300-134.82 300-301.13v-458.87h-600z" fill="#2b5df2"/>
<path d="m426.84 611.88c-29.527 0-57.122 25.91-84.91 45.623-27.787 19.713-40.427 5.678-40.427 5.678s-12.638 14.035-40.426-5.678-55.383-45.623-84.909-45.623c-24.079 0-51.581 19.01-51.581 57.029 0 9.105 1.718 23.131 6.34 39.182 48.434 33.666 107.2 53.408 170.58 53.408s122.14-19.742 170.58-53.406c4.622-16.053 6.34-30.076 6.34-39.184 0-38.019-27.502-57.029-51.579-57.029z" fill="#fcef3c"/>
<path d="m472.07 708.09c4.622-16.053 6.34-30.076 6.34-39.184 0-38.021-27.502-57.029-51.579-57.029-29.527 0-57.122 25.91-84.91 45.623-27.787 19.713-40.427 5.678-40.427 5.678s-12.638 14.035-40.426-5.678-55.383-45.623-84.909-45.623c-24.079 0-51.581 19.01-51.581 57.029 0 9.105 1.718 23.131 6.34 39.182" fill="none" stroke="#000" stroke-width="3"/>
<path d="m369.93 633.42c0-37.795-30.64-68.436-68.436-68.436-37.794 0-68.435 30.641-68.435 68.436s53.733 127.95 68.435 127.95c14.701 0 68.436-90.154 68.436-127.95z" fill="#fcef3c" stroke="#000" stroke-width="3"/>
<path d="m601.5 436.42v-103.24c-6.363 1.729-13.866 2.816-23.301 2.816-46.115 0-46.115-25.968-92.231-25.968s-46.116 25.968-92.233 25.968-46.117-25.968-92.234-25.968c-46.116 0-46.116 25.968-92.231 25.968-46.116 0-46.117-25.968-92.232-25.968-46.117 0-46.117 25.968-92.234 25.968-9.434 0-16.937-1.088-23.301-2.816v103.24c6.364 1.729 13.867 2.816 23.301 2.816 46.117 0 46.117-25.969 92.234-25.969 46.115 0 46.115 25.969 92.232 25.969s46.117-25.969 92.231-25.969c46.117 0 46.117 25.969 92.234 25.969s46.117-25.969 92.233-25.969 46.116 25.969 92.231 25.969c9.435 1e-3 16.938-1.087 23.301-2.816z" fill="#fff"/>
<path d="m601.5 333.19c-6.363 1.729-13.866 2.816-23.301 2.816-46.115 0-46.115-25.968-92.231-25.968s-46.116 25.968-92.233 25.968-46.117-25.968-92.234-25.968c-46.116 0-46.116 25.968-92.231 25.968-46.116 0-46.117-25.968-92.232-25.968-46.117 0-46.117 25.968-92.234 25.968-9.434 0-16.937-1.088-23.301-2.816" fill="none" stroke="#000" stroke-width="3"/>
<path d="m1.5 436.42c6.364 1.729 13.867 2.816 23.301 2.816 46.117 0 46.117-25.969 92.234-25.969 46.115 0 46.115 25.969 92.232 25.969s46.117-25.969 92.231-25.969c46.117 0 46.117 25.969 92.234 25.969s46.117-25.969 92.233-25.969c46.115 0 46.115 25.969 92.231 25.969 9.435 0 16.938-1.088 23.3-2.816" fill="none" stroke="#000" stroke-width="3"/>
<path d="m270.6 167.52-7.314-4.701c-29.936-2.012-46.766 22.107-52.458 27.749-5.692 5.639-16.487-4.644-16.487-4.644 14.848 25.603 28.897 9.879 37.96 1.719 9.065-8.162 22.778-2.044 22.778-2.044l15.521-18.079zm-42.905-39.084c12.182 0.636 17.551 14.659 17.551 14.659l23.76-1.808-1.847-8.495c-19.744-22.591-48.7-17.435-56.715-17.473-8.015-0.039-8.375-14.942-8.375-14.942-7.605 28.605 13.449 27.419 25.626 28.059zm40.654-22.347 18.083 15.523 4.701-7.313c2.01-29.937-22.107-46.765-27.751-52.459-5.637-5.694 4.646-16.487 4.646-16.487-25.606 14.847-9.881 28.897-1.723 37.961 8.164 9.064 2.044 22.775 2.044 22.775zm52.807 12.084c22.589-19.749 17.437-48.7 17.475-56.718 0.038-8.013 14.944-8.373 14.944-8.373-28.606-7.609-27.421 13.446-28.062 25.624-0.636 12.182-14.657 17.551-14.657 17.551l1.808 23.763 8.492-1.847zm11.181 19.271 7.315 4.699c29.936 2.01 46.765-22.107 52.459-27.748 5.691-5.639 16.486 4.646 16.486 4.646-14.847-25.608-28.896-9.88-37.961-1.724-9.064 8.164-22.775 2.044-22.775 2.044l-15.524 18.083zm42.904 39.083c-12.18-0.639-17.548-14.661-17.548-14.661l-23.763 1.808 1.849 8.494c19.746 22.588 48.698 17.435 56.715 17.473 8.013 0.038 8.376 14.944 8.376 14.944 7.604-28.606-13.451-27.42-25.629-28.058zm-40.653 22.347-18.081-15.523-4.701 7.311c-2.008 29.938 22.108 46.766 27.75 52.461 5.64 5.691-4.646 16.49-4.646 16.49 25.608-14.851 9.882-28.9 1.722-37.961-8.162-9.068-2.044-22.778-2.044-22.778zm-52.806-12.084c-22.588 19.745-17.436 48.697-17.474 56.715-0.037 8.013-14.946 8.374-14.946 8.374 28.606 7.606 27.421-13.445 28.059-25.622 0.642-12.183 14.661-17.55 14.661-17.55l-1.808-23.763-8.492 1.846z" fill="#fcef3c" stroke="#000" stroke-linecap="round" stroke-linejoin="round" stroke-width="2.75"/>
<path d="m384.66 236-35.564-52.456c3.65-5.646 6.325-11.977 7.782-18.765l62.229-11.943-62.229-11.943c-1.457-6.788-4.132-13.119-7.782-18.765l35.564-52.457-52.457 35.565c-5.646-3.65-11.978-6.326-18.765-7.782l-11.941-62.228-11.943 62.228c-6.787 1.457-13.118 4.133-18.764 7.783l-52.458-35.564 35.566 52.455c-3.649 5.646-6.325 11.977-7.783 18.764l-62.229 11.943 62.23 11.943c1.457 6.788 4.132 13.119 7.782 18.765l-35.567 52.457 52.458-35.566c5.646 3.65 11.977 6.326 18.764 7.783l11.943 62.23 11.941-62.23c6.787-1.457 13.12-4.132 18.765-7.782l52.458 35.565z" fill="#fcef3c" stroke="#000" stroke-linecap="round" stroke-linejoin="round" stroke-width="2.3518"/>
<path d="m301.5 179.15s-5.354 2.725-16.284-0.645c0 0 9.052 6.732 9.99 8.415 0.939 1.685 2.908 3.338 6.294 3.338 3.389 0 5.356-1.653 6.296-3.338 0.938-1.683 9.99-8.415 9.99-8.415-10.929 3.366-16.286 0.645-16.286 0.645z" fill="none" stroke="#000" stroke-linecap="round" stroke-linejoin="round" stroke-width="2.75"/>
<path d="m308.7 163.66c-0.696 0-0.942-0.964 0.059-0.964 1.851 0 3.349 1.501 3.349 3.352 0 1.849-1.498 3.347-3.349 3.347-2.094 0-2.194-0.869-3.586-0.869-1.389 0-2.541 0.869-3.678 0.869-1.136 0-2.287-0.869-3.677-0.869-1.387 0-1.491 0.869-3.587 0.869-1.848 0-3.349-1.499-3.349-3.347 0-1.85 1.501-3.352 3.349-3.352 1.003 0 0.758 0.964 0.061 0.964" fill="none" stroke="#000" stroke-linecap="round" stroke-linejoin="round" stroke-width="2.75"/>
<path d="m277.24 140.24c7.125 5.696 19.658 0 19.658 0-12.536-19.66-29.063 1.141-29.063 1.141m67.332-1e-3s-16.524-20.801-29.062-1.143c0 0 12.533 5.698 19.657 0" fill="none" stroke="#000" stroke-linecap="round" stroke-linejoin="round" stroke-width="2.75"/>
<path d="m284.08 135.11c-1.257 0-2.277 1.02-2.277 2.28 0 1.257 1.02 2.28 2.277 2.28 1.26 0 2.277-1.022 2.277-2.28 0-1.26-1.017-2.28-2.277-2.28zm34.846 0c-1.259 0-2.277 1.02-2.277 2.28 0 1.257 1.019 2.28 2.277 2.28 1.26 0 2.275-1.022 2.275-2.28 0-1.26-1.014-2.28-2.275-2.28z" stroke="#000" stroke-linecap="round" stroke-linejoin="round" stroke-width="2.75"/>
<path d="m295.35 125.86c-11.72-11.161-23.999-1.115-23.999-1.115m60.299 0s-12.278-10.046-24 1.115" fill="none" stroke="#000" stroke-linecap="round" stroke-linejoin="round" stroke-width="2.75"/>
</g>
<g>
<path d="m1.5 1.5v458.87c0 166.31 134.31 301.13 300 301.13 165.69 0 300-134.82 300-301.13v-458.87h-600z" fill="url(#a)"/>
<path d="m1.5 1.5v458.87c0 166.31 134.31 301.13 300 301.13 165.69 0 300-134.82 300-301.13v-458.87h-600z" fill="none" stroke="#000" stroke-width="3"/>
</g>
</svg>

<?xml version="1.0" encoding="UTF-8" standalone="no"?>
<svg
   xmlns:dc="http://purl.org/dc/elements/1.1/"
   xmlns:cc="http://creativecommons.org/ns#"
   xmlns:rdf="http://www.w3.org/1999/02/22-rdf-syntax-ns#"
   xmlns:svg="http://www.w3.org/2000/svg"
   xmlns="http://www.w3.org/2000/svg"
   xmlns:xlink="http://www.w3.org/1999/xlink"
   xmlns:sodipodi="http://sodipodi.sourceforge.net/DTD/sodipodi-0.dtd"
   xmlns:inkscape="http://www.inkscape.org/namespaces/inkscape"
   height="763"
   width="603"
   version="1.0"
   id="svg20"
   sodipodi:version="0.32"
   inkscape:version="0.46"
   sodipodi:docname="Clarmont-coat_of_arms.svg"
   sodipodi:docbase="C:\Documents and Settings\Steve\Bureau\Blason Villages Suisse pour Wikipédia (par Delta-9)"
   inkscape:output_extension="org.inkscape.output.svg.inkscape">
  <metadata
     id="metadata31">
    <rdf:RDF>
      <cc:Work
         rdf:about="">
        <dc:format>image/svg+xml</dc:format>
        <dc:type
           rdf:resource="http://purl.org/dc/dcmitype/StillImage" />
        <dc:date>07-AUG-2006</dc:date>
        <dc:creator>
          <cc:Agent>
            <dc:title>Jérôme BLUM (wagner51)</dc:title>
          </cc:Agent>
        </dc:creator>
        <cc:license
           rdf:resource="http://creativecommons.org/licenses/GPL/2.0/" />
        <dc:coverage />
        <dc:description>Gabarit pour le Projet:Blasons de WIkipédia</dc:description>
        <dc:subject>
          <rdf:Bag>
            <rdf:li>blason suisse modèle gabarit projet blasons</rdf:li>
          </rdf:Bag>
        </dc:subject>
        <dc:language>fr</dc:language>
        <dc:title>Gabrit d'un blason suisse</dc:title>
      </cc:Work>
      <cc:License
         rdf:about="http://creativecommons.org/licenses/GPL/2.0/">
        <cc:permits
           rdf:resource="http://web.resource.org/cc/Reproduction" />
        <cc:permits
           rdf:resource="http://web.resource.org/cc/Distribution" />
        <cc:requires
           rdf:resource="http://web.resource.org/cc/Notice" />
        <cc:permits
           rdf:resource="http://web.resource.org/cc/DerivativeWorks" />
        <cc:requires
           rdf:resource="http://web.resource.org/cc/ShareAlike" />
        <cc:requires
           rdf:resource="http://web.resource.org/cc/SourceCode" />
      </cc:License>
    </rdf:RDF>
  </metadata>
  <defs
     id="defs29"><inkscape:perspective
   sodipodi:type="inkscape:persp3d"
   inkscape:vp_x="0 : 381.5 : 1"
   inkscape:vp_y="0 : 1000 : 0"
   inkscape:vp_z="603 : 381.5 : 1"
   inkscape:persp3d-origin="301.5 : 254.33333 : 1"
   id="perspective28" />
<linearGradient
   id="linearGradient2893">
  <stop
     style="stop-color:#ffffff;stop-opacity:0.3137255;"
     offset="0"
     id="stop2895" />
  <stop
     id="stop2897"
     offset="0.19"
     style="stop-color:#ffffff;stop-opacity:0.25098041;" />
  <stop
     style="stop-color:#6b6b6b;stop-opacity:0.1254902;"
     offset="0.60000002"
     id="stop2901" />
  <stop
     style="stop-color:#000000;stop-opacity:0.1254902;"
     offset="1"
     id="stop2899" />
</linearGradient>
<linearGradient
   id="linearGradient2955">
  <stop
     style="stop-color:white;stop-opacity:0;"
     offset="0"
     id="stop2965" />
  <stop
     style="stop-color:black;stop-opacity:0.64583331;"
     offset="1"
     id="stop2959" />
</linearGradient>
<radialGradient
   inkscape:collect="always"
   xlink:href="#linearGradient2893"
   id="radialGradient3236"
   gradientUnits="userSpaceOnUse"
   gradientTransform="matrix(1.215027,1.531577e-24,1.464684e-23,1.266667,-839.1924,-490.4894)"
   cx="858.04236"
   cy="579.93323"
   fx="858.04236"
   fy="579.93323"
   r="300" />
<inkscape:perspective
   id="perspective2496"
   inkscape:persp3d-origin="297.63751 : 280.63 : 1"
   inkscape:vp_z="595.27502 : 420.94501 : 1"
   inkscape:vp_y="0 : 1000 : 0"
   inkscape:vp_x="0 : 420.94501 : 1"
   sodipodi:type="inkscape:persp3d" />

	
	
	

	

		
		
		
		
		
		
		
	
		
		
		
	
		
		
		
	</defs>
  <sodipodi:namedview
     inkscape:window-height="968"
     inkscape:window-width="1280"
     inkscape:pageshadow="2"
     inkscape:pageopacity="0.0"
     guidetolerance="10.0"
     gridtolerance="10.0"
     objecttolerance="10.0"
     borderopacity="1.0"
     bordercolor="#666666"
     pagecolor="#ffffff"
     id="base"
     inkscape:zoom="0.94109119"
     inkscape:cx="305.90717"
     inkscape:cy="388.26679"
     inkscape:window-x="1280"
     inkscape:window-y="22"
     inkscape:current-layer="layer2"
     showgrid="false"
     showguides="true"
     inkscape:guide-bbox="true">
    <sodipodi:guide
       orientation="horizontal"
       position="761.5"
       id="guide1885" />
    <sodipodi:guide
       orientation="vertical"
       position="1.5"
       id="guide1887" />
    <sodipodi:guide
       orientation="horizontal"
       position="1.5"
       id="guide1889" />
    <sodipodi:guide
       orientation="vertical"
       position="601.5"
       id="guide1891" />
    <sodipodi:guide
       orientation="vertical"
       position="301.50081"
       id="guide1893" />
  </sodipodi:namedview>
  <desc
     id="desc22">Coat of Arms of Canton of Freiburg (Fribourg)</desc>
  <g
     inkscape:groupmode="layer"
     id="layer1"
     inkscape:label="Fond écu"
     style="opacity:1;display:inline"
     sodipodi:insensitive="true">
    <path
       d="M 1.5,1.5 L 1.5,460.369 C 1.5,626.68 135.814,761.5 301.5,761.5 C 467.186,761.5 601.5,626.68 601.5,460.369 L 601.5,1.5 L 1.5,1.5 z"
       id="path2503"
       style="opacity:1;fill:#2b5df2;display:inline" />
  </g>
  <g
     inkscape:groupmode="layer"
     id="layer2"
     inkscape:label="Meubles"
     style="opacity:1;display:inline"
     sodipodi:insensitive="true">
    <path
       style="fill:#fcef3c"
       id="path2598"
       d="M 426.835,611.88 C 397.308,611.88 369.713,637.79 341.925,657.503 C 314.138,677.216 301.498,663.181 301.498,663.181 C 301.498,663.181 288.86,677.216 261.072,657.503 C 233.284,637.79 205.689,611.88 176.163,611.88 C 152.084,611.88 124.582,630.89 124.582,668.909 C 124.582,678.014 126.3,692.04 130.922,708.091 C 179.356,741.757 238.126,761.499 301.498,761.499 C 364.87,761.499 423.642,741.757 472.074,708.093 C 476.696,692.04 478.414,678.017 478.414,668.909 C 478.414,630.89 450.912,611.88 426.835,611.88 z" />
    <path
       style="fill:none;stroke:#000000;stroke-width:3"
       id="path2600"
       d="M 472.074,708.093 C 476.696,692.04 478.414,678.017 478.414,668.909 C 478.414,630.888 450.912,611.88 426.835,611.88 C 397.308,611.88 369.713,637.79 341.925,657.503 C 314.138,677.216 301.498,663.181 301.498,663.181 C 301.498,663.181 288.86,677.216 261.072,657.503 C 233.284,637.79 205.689,611.88 176.163,611.88 C 152.084,611.88 124.582,630.89 124.582,668.909 C 124.582,678.014 126.3,692.04 130.922,708.091" />
    <path
       style="fill:#fcef3c;stroke:#000000;stroke-width:3"
       id="path2602"
       d="M 369.934,633.425 C 369.934,595.63 339.294,564.989 301.498,564.989 C 263.704,564.989 233.063,595.63 233.063,633.425 C 233.063,671.22 286.796,761.374 301.498,761.374 C 316.199,761.374 369.934,671.22 369.934,633.425 z" />
    <path
       style="fill:#ffffff"
       id="path2606"
       d="M 601.499,436.425 L 601.499,333.186 C 595.136,334.915 587.633,336.002 578.198,336.002 C 532.083,336.002 532.083,310.034 485.967,310.034 C 439.851,310.034 439.851,336.002 393.734,336.002 C 347.617,336.002 347.617,310.034 301.5,310.034 C 255.384,310.034 255.384,336.002 209.269,336.002 C 163.153,336.002 163.152,310.034 117.037,310.034 C 70.92,310.034 70.92,336.002 24.803,336.002 C 15.369,336.002 7.866,334.914 1.502,333.186 L 1.502,436.425 C 7.866,438.154 15.369,439.241 24.803,439.241 C 70.92,439.241 70.92,413.272 117.037,413.272 C 163.152,413.272 163.152,439.241 209.269,439.241 C 255.386,439.241 255.386,413.272 301.5,413.272 C 347.617,413.272 347.617,439.241 393.734,439.241 C 439.851,439.241 439.851,413.272 485.967,413.272 C 532.083,413.272 532.083,439.241 578.198,439.241 C 587.633,439.242 595.136,438.154 601.499,436.425 z" />
    <path
       style="fill:none;stroke:#000000;stroke-width:3"
       id="path2608"
       d="M 601.499,333.186 C 595.136,334.915 587.633,336.002 578.198,336.002 C 532.083,336.002 532.083,310.034 485.967,310.034 C 439.851,310.034 439.851,336.002 393.734,336.002 C 347.617,336.002 347.617,310.034 301.5,310.034 C 255.384,310.034 255.384,336.002 209.269,336.002 C 163.153,336.002 163.152,310.034 117.037,310.034 C 70.92,310.034 70.92,336.002 24.803,336.002 C 15.369,336.002 7.866,334.914 1.502,333.186" />
    <path
       style="fill:none;stroke:#000000;stroke-width:3"
       id="path2610"
       d="M 1.5,436.425 C 7.864,438.154 15.367,439.241 24.801,439.241 C 70.918,439.241 70.918,413.272 117.035,413.272 C 163.15,413.272 163.15,439.241 209.267,439.241 C 255.384,439.241 255.384,413.272 301.498,413.272 C 347.615,413.272 347.615,439.241 393.732,439.241 C 439.849,439.241 439.849,413.272 485.965,413.272 C 532.08,413.272 532.08,439.241 578.196,439.241 C 587.631,439.241 595.134,438.153 601.496,436.425" />
    <path
       style="fill:#fcef3c;stroke:#000000;stroke-width:2.75;stroke-linecap:round;stroke-linejoin:round"
       id="path2191"
       d="M 270.598,167.518 L 263.284,162.817 C 233.348,160.805 216.518,184.924 210.826,190.566 C 205.134,196.205 194.339,185.922 194.339,185.922 C 209.187,211.525 223.236,195.801 232.299,187.641 C 241.364,179.479 255.077,185.597 255.077,185.597 L 270.598,167.518 z M 227.693,128.434 C 239.875,129.07 245.244,143.093 245.244,143.093 L 269.004,141.285 L 267.157,132.79 C 247.413,110.199 218.457,115.355 210.442,115.317 C 202.427,115.278 202.067,100.375 202.067,100.375 C 194.462,128.98 215.516,127.794 227.693,128.434 z M 268.347,106.087 L 286.43,121.61 L 291.131,114.297 C 293.141,84.36 269.024,67.532 263.38,61.838 C 257.743,56.144 268.026,45.351 268.026,45.351 C 242.42,60.198 258.145,74.248 266.303,83.312 C 274.467,92.376 268.347,106.087 268.347,106.087 z M 321.154,118.171 C 343.743,98.422 338.591,69.471 338.629,61.453 C 338.667,53.44 353.573,53.08 353.573,53.08 C 324.967,45.471 326.152,66.526 325.511,78.704 C 324.875,90.886 310.854,96.255 310.854,96.255 L 312.662,120.018 L 321.154,118.171 z M 332.335,137.442 L 339.65,142.141 C 369.586,144.151 386.415,120.034 392.109,114.393 C 397.8,108.754 408.595,119.039 408.595,119.039 C 393.748,93.431 379.699,109.159 370.634,117.315 C 361.57,125.479 347.859,119.359 347.859,119.359 L 332.335,137.442 z M 375.239,176.525 C 363.059,175.886 357.691,161.864 357.691,161.864 L 333.928,163.672 L 335.777,172.166 C 355.523,194.754 384.475,189.601 392.492,189.639 C 400.505,189.677 400.868,204.583 400.868,204.583 C 408.472,175.977 387.417,177.163 375.239,176.525 z M 334.586,198.872 L 316.505,183.349 L 311.804,190.66 C 309.796,220.598 333.912,237.426 339.554,243.121 C 345.194,248.812 334.908,259.611 334.908,259.611 C 360.516,244.76 344.79,230.711 336.63,221.65 C 328.468,212.582 334.586,198.872 334.586,198.872 z M 281.78,186.788 C 259.192,206.533 264.344,235.485 264.306,243.503 C 264.269,251.516 249.36,251.877 249.36,251.877 C 277.966,259.483 276.781,238.432 277.419,226.255 C 278.061,214.072 292.08,208.705 292.08,208.705 L 290.272,184.942 L 281.78,186.788 z" />
    <path
       style="fill:#fcef3c;stroke:#000000;stroke-width:2.35179996;stroke-linecap:round;stroke-linejoin:round"
       d="M 384.662,235.995 L 349.098,183.539 C 352.748,177.893 355.423,171.562 356.88,164.774 L 419.109,152.831 L 356.88,140.888 C 355.423,134.1 352.748,127.769 349.098,122.123 L 384.662,69.666 L 332.205,105.231 C 326.559,101.581 320.227,98.905 313.44,97.449 L 301.499,35.221 L 289.556,97.449 C 282.769,98.906 276.438,101.582 270.792,105.232 L 218.334,69.668 L 253.9,122.123 C 250.251,127.769 247.575,134.1 246.117,140.887 L 183.888,152.83 L 246.118,164.773 C 247.575,171.561 250.25,177.892 253.9,183.538 L 218.333,235.995 L 270.791,200.429 C 276.437,204.079 282.768,206.755 289.555,208.212 L 301.498,270.442 L 313.439,208.212 C 320.226,206.755 326.559,204.08 332.204,200.43 L 384.662,235.995 z"
       id="path2484" />
    <path
       style="fill:none;stroke:#000000;stroke-width:2.75;stroke-linecap:round;stroke-linejoin:round"
       id="path2195"
       d="M 301.499,179.152 C 301.499,179.152 296.145,181.877 285.215,178.507 C 285.215,178.507 294.267,185.239 295.205,186.922 C 296.144,188.607 298.113,190.26 301.499,190.26 C 304.888,190.26 306.855,188.607 307.795,186.922 C 308.733,185.239 317.785,178.507 317.785,178.507 C 306.856,181.873 301.499,179.152 301.499,179.152 z" />
    <path
       style="fill:none;stroke:#000000;stroke-width:2.75;stroke-linecap:round;stroke-linejoin:round"
       id="path2197"
       d="M 308.704,163.657 C 308.008,163.657 307.762,162.693 308.763,162.693 C 310.614,162.693 312.112,164.194 312.112,166.045 C 312.112,167.894 310.614,169.392 308.763,169.392 C 306.669,169.392 306.569,168.523 305.177,168.523 C 303.788,168.523 302.636,169.392 301.499,169.392 C 300.363,169.392 299.212,168.523 297.822,168.523 C 296.435,168.523 296.331,169.392 294.235,169.392 C 292.387,169.392 290.886,167.893 290.886,166.045 C 290.886,164.195 292.387,162.693 294.235,162.693 C 295.238,162.693 294.993,163.657 294.296,163.657" />
    <path
       style="fill:none;stroke:#000000;stroke-width:2.75;stroke-linecap:round;stroke-linejoin:round"
       id="path2199"
       d="M 277.237,140.235 C 284.362,145.931 296.895,140.235 296.895,140.235 C 284.359,120.575 267.832,141.376 267.832,141.376 M 335.164,141.375 C 335.164,141.375 318.64,120.574 306.102,140.232 C 306.102,140.232 318.635,145.93 325.759,140.232" />
    <path
       style="stroke:#000000;stroke-width:2.75;stroke-linecap:round;stroke-linejoin:round"
       id="path2201"
       d="M 284.076,135.106 C 282.819,135.106 281.799,136.126 281.799,137.386 C 281.799,138.643 282.819,139.666 284.076,139.666 C 285.336,139.666 286.353,138.644 286.353,137.386 C 286.353,136.126 285.336,135.106 284.076,135.106 z M 318.922,135.106 C 317.663,135.106 316.645,136.126 316.645,137.386 C 316.645,138.643 317.664,139.666 318.922,139.666 C 320.182,139.666 321.197,138.644 321.197,137.386 C 321.197,136.126 320.183,135.106 318.922,135.106 z" />
    <path
       style="fill:none;stroke:#000000;stroke-width:2.75;stroke-linecap:round;stroke-linejoin:round"
       id="path2203"
       d="M 295.35,125.857 C 283.63,114.696 271.351,124.742 271.351,124.742 M 331.65,124.742 C 331.65,124.742 319.372,114.696 307.65,125.857" />
  </g>
  <g
     inkscape:groupmode="layer"
     id="layer3"
     inkscape:label="Reflet final"
     style="display:inline"
     sodipodi:insensitive="true">
    <path
       style="fill:url(#radialGradient3236);fill-opacity:1"
       d="M 1.5,1.5 L 1.5,460.3679 C 1.5,626.67854 135.81454,761.5 301.49993,761.5 C 467.1854,761.5 601.5,626.67854 601.5,460.3679 L 601.5,1.5 L 1.5,1.5 z "
       id="path2346" />
  </g>
  <g
     inkscape:groupmode="layer"
     id="layer4"
     inkscape:label="Contour final"
     style="display:inline"
     sodipodi:insensitive="true">
    <path
       style="fill:none;fill-opacity:1;stroke:#000000;stroke-width:3;stroke-miterlimit:4;stroke-dasharray:none;stroke-opacity:1"
       d="M 1.5,1.5 L 1.5,460.36794 C 1.5,626.67854 135.81454,761.5 301.49993,761.5 C 467.1854,761.5 601.5,626.67854 601.5,460.36794 L 601.5,1.5 L 1.5,1.5 z "
       id="path3239" />
  </g>
</svg>
